X:0
M: 4/4
L: 1/4
T: Jamie Allen
Z: John Chambers <jc:trillian.mit.edu>
N: Jamie Allen was a Northumbrian small-pipes player.
K: G
|: "G"BG GA | "Em"B2 GA/B/ | "Am"cA AB | "D7"c2 BA \
| "G"Gg "C"ge | "G"d2 B>c | "D7"dd c/B/A | "G"G3 :|]
|: "G"Gg g>f | "Em"ed cB | "Am"Aa a>g | "D7"fd ef \
| "C"g>a ge | "G"d2 B>c | "D7"dd c/B/A | "G"G3 :|]
